X: 32013
T: Peeler's Pocket, The
R: reel
M: 4/4
K: Gmajor
e|d2B/c/d c3^c|dgBG AF (3DEF|GAAG ABcd|eAce gfge|
d2B/c/d cBce|dgBG AFDF|GAAG ABcd|ecAd BGB/c/d|
g2dB GBBd|~g2fd ~e3a|gedB G2B/c/d|ecAd BGB/c/d|
gbfb egdB|cEAG FGAc|~B3d c2eg|dfaf ~g3|

